proprietary/assets/icons/vervoersmiddelen/schip-in-sluis-met-klok.svg

<svg height="64" viewBox="0 0 64 64" width="64" xmlns="http://www.w3.org/2000/svg"><path d="m0 0h64v64h-64z" fill="none"/><path d="m12 11h27v13h-27z"/><path d="m34 31.4335c0-.2395-.1907-.4335-.4259-.4335h-2.537v-3.5665c0-.2394-.1907-.4335-.426-.4335h-10.1852c-.2352 0-.4259.194-.4259.4335v3.5665h-2.5741c-.2352 0-.4259.194-.4259.4335v2.9854c1.4337-.404 3.6096-.7673 5.6595-.9163 3.5435-.2576 6.0443.7913 7.638 1.7844.2079.1296.2682.2828.252.4296-1.6212-.4462-3.3762-.7715-5.0495-.7715-5.3336 0-11.5 3.3028-11.5 3.3028 0 3.4306.7002 7.5106 1.203 10.0037 1.5964-.501 3.0496-1.4999 4.4366-2.3921 1.7366 1.1164 3.9661 2.6758 6.0693 2.6758.721 0 1.4261-.1777 2.1058-.4393-.0001-.0325-.0047-.0637-.0047-.096 0-5.5759 2.3926-10.5807 6.19-14.0869zm-10.5296 12.0812h-5.963v-2.601c0-.4792.3815-.8669.8519-.8669s.8519.3878.8519.8669v.867h2.5555v-.867c0-.4792.3815-.8669.8519-.8669s.8519.3877.8519.8669v2.601z"/><path d="m10 47.4031v-38.4673h31v20.8444c1.8892-.6219 3.9026-.9702 6-.9702v-19.8742h3v-6.9358h-49v6.9358h3v22.0642h-3v17.5118c2.3138.1722 4.4016-1.3015 6.5029-2.6525.8648.557 1.6357 1.073 2.4971 1.5438z"/><path d="m25.7087 50.6345c-2.1817 0-4.2835-1.1301-6.0688-2.2784-1.7912 1.1521-3.8968 2.2784-6.0688 2.2784-2.1817 0-4.2834-1.1301-6.0688-2.2784-1.9446 1.2508-4.2049 2.4306-6.5023 2.261v3.3653c2.2286.1084 4.5584-.6623 6.5023-1.6765 1.264.6595 3.6321 1.6924 6.0688 1.6924s4.8047-1.0329 6.0688-1.6924c1.2641.6595 3.6321 1.6924 6.0688 1.6924 1.017 0 2.0085-.1891 2.9241-.4468-.3204-1.0616-.5459-2.1631-.6786-3.2935-.7336.23-1.4844.3765-2.2455.3765z"/><path d="m47 31.9999c-8.8366 0-16 7.1627-16 16.0001 0 8.8372 7.1634 16 16 16 8.8372 0 16-7.1628 16-16 0-8.8373-7.1628-16.0001-16-16.0001zm0 28.1001c-6.6719 0-12.1-5.428-12.1-12.1s5.4281-12.1 12.1-12.1 12.1 5.428 12.1 12.1c0 6.6719-5.4281 12.1-12.1 12.1z"/><path d="m54.6055 47.8398h.0241l-7.1383-.7064-.5579-7.8053c-.0625-.5538-.4487-.9577-1.0001-.9577s-.9584.3587-.999.9577l-.6677 9.1878c0 .8604.6579 1.5677 1.4974 1.6533.0498.0283 8.8414-.6276 8.8414-.6276.5779-.056 1.0001-.2997 1.0001-.8513 0-.5507-.385-.8088-1-.8505z"/></svg>

<?xml version="1.0" encoding="utf-8"?>
<!-- Generator: Adobe Illustrator 18.1.0, SVG Export Plug-In . SVG Version: 6.00 Build 0)  -->
<svg version="1.2" baseProfile="tiny" xmlns="http://www.w3.org/2000/svg" xmlns:xlink="http://www.w3.org/1999/xlink" x="0px"
	 y="0px" width="64px" height="64px" viewBox="0 0 64 64" xml:space="preserve">
<g id="Box">
	<rect fill="none" width="64" height="64"/>
</g>
<g id="Icon">
	<g>
		<rect x="12" y="11" width="27" height="13"/>
		<path d="M34,31.4335C34,31.194,33.8093,31,33.5741,31h-2.537v-3.5665c0-0.2394-0.1907-0.4335-0.426-0.4335H20.4259
			C20.1907,27,20,27.194,20,27.4335V31h-2.5741C17.1907,31,17,31.194,17,31.4335v2.9854c1.4337-0.404,3.6096-0.7673,5.6595-0.9163
			c3.5435-0.2576,6.0443,0.7913,7.638,1.7844c0.2079,0.1296,0.2682,0.2828,0.252,0.4296c-1.6212-0.4462-3.3762-0.7715-5.0495-0.7715
			c-5.3336,0-11.5,3.3028-11.5,3.3028c0,3.4306,0.7002,7.5106,1.203,10.0037c1.5964-0.501,3.0496-1.4999,4.4366-2.3921
			c1.7366,1.1164,3.9661,2.6758,6.0693,2.6758c0.721,0,1.4261-0.1777,2.1058-0.4393C27.8146,48.0635,27.81,48.0323,27.81,48
			c0-5.5759,2.3926-10.5807,6.19-14.0869V31.4335z M23.4704,43.5147h-5.963v-2.601c0-0.4792,0.3815-0.8669,0.8519-0.8669
			s0.8519,0.3878,0.8519,0.8669v0.867h2.5555v-0.867c0-0.4792,0.3815-0.8669,0.8519-0.8669s0.8519,0.3877,0.8519,0.8669V43.5147z"/>
		<path d="M10,47.4031V8.9358h31v20.8444c1.8892-0.6219,3.9026-0.9702,6-0.9702V8.9358h3V2H1v6.9358h3V31H1v17.5118
			c2.3138,0.1722,4.4016-1.3015,6.5029-2.6525C8.3677,46.4163,9.1386,46.9323,10,47.4031z"/>
		<path d="M25.7087,50.6345c-2.1817,0-4.2835-1.1301-6.0688-2.2784c-1.7912,1.1521-3.8968,2.2784-6.0688,2.2784
			c-2.1817,0-4.2834-1.1301-6.0688-2.2784C5.5577,49.6069,3.2974,50.7867,1,50.6171v3.3653
			c2.2286,0.1084,4.5584-0.6623,6.5023-1.6765c1.264,0.6595,3.6321,1.6924,6.0688,1.6924s4.8047-1.0329,6.0688-1.6924
			c1.2641,0.6595,3.6321,1.6924,6.0688,1.6924c1.017,0,2.0085-0.1891,2.9241-0.4468c-0.3204-1.0616-0.5459-2.1631-0.6786-3.2935
			C27.2206,50.488,26.4698,50.6345,25.7087,50.6345z"/>
		<path d="M47,31.9999c-8.8366,0-16,7.1627-16,16.0001c0,8.8372,7.1634,16,16,16c8.8372,0,16-7.1628,16-16
			C63,39.1627,55.8372,31.9999,47,31.9999z M47,60.1c-6.6719,0-12.1-5.428-12.1-12.1c0-6.672,5.4281-12.1,12.1-12.1
			S59.1,41.328,59.1,48C59.1,54.6719,53.6719,60.1,47,60.1z"/>
		<path d="M54.6055,47.8398h0.0241l-7.1383-0.7064l-0.5579-7.8053c-0.0625-0.5538-0.4487-0.9577-1.0001-0.9577
			s-0.9584,0.3587-0.999,0.9577l-0.6677,9.1878c0,0.8604,0.6579,1.5677,1.4974,1.6533c0.0498,0.0283,8.8414-0.6276,8.8414-0.6276
			c0.5779-0.056,1.0001-0.2997,1.0001-0.8513C55.6055,48.1396,55.2205,47.8815,54.6055,47.8398z"/>
	</g>
</g>
</svg>
